X:1
T:Title
%%score { ( 1 4 ) | ( 2 3 ) }
L:1/8
M:4/4
K:G
V:1 treble nm="Grand Piano"
V:4 treble 
V:2 bass 
V:3 bass 
V:1
 z4 z2[Q:1/4=100] [B,G]A | B2 D2 G2 B2 | .[CEA]2 [G,CE]2 [CEA]3 [A,EG] | %3
 [DF][EG][FA][GB] [Fc]2 [CDF]2 |[M:3/4] [B,G]4 B2 |[M:1/4] [B,G]A |[M:4/4] B2 D2 G2 B2 | %7
 .[CEA]2 [G,CE]2 [CEA]3 [A,EG] | [DF][EG][FA][GB] [Fc]2 [CDF]2 |[M:3/4] [B,DG]6 | %10
[M:1/4] [DB]>[Dc] |[M:4/4] [Dd]6 z2 |[M:3/4] B6 |[M:1/4] [Ac] z |[M:4/4] [GB]2 [FA]2 [FA]2 [FA]c | %15
 [DAc]2 [DGB]2 [DGB]2 [DBd]>[DAc] | [GB]6 z2 | [Ac]6 z2 | [B,DG]2 [B,DG]2 [CDA]3 [CDA] | %19
[M:3/4] [B,DG]6 |] %20
V:2
 z4 z2 z C | [G,D]2 [G,B,]2 [G,B,D]2 [G,D]2 | z G C,2 A,,3 ^C, | [D,A,]2 [D,D]2 [D,A,]2 D,2 | %4
[M:3/4] z2 z2 G,2 |[M:1/4] z C |[M:4/4] [G,D]2 [G,B,]2 [G,B,D]2 [G,D]2 | z G C,2 A,,3 ^C, | %8
 [D,A,]2 [D,D]2 [D,A,]2 D,2 |[M:3/4] G,,6 |[M:1/4] G,>[G,A,] | %11
[M:4/4] [G,B,]2 G,>G, G,>[K:treble][G,B,D] [G,B,D]>[G,CD] |[M:3/4] [G,D]2 z2 z2 | %13
[M:1/4][K:bass] F,G, |[M:4/4] [D,D]2 [D,D]2 [D,D]2 z[K:treble] A | G,2 G,2 G,2 G,>[K:bass]G, | %16
 G,2 G,>G, E,>E, C,>B,, | A,,>A,, A,,>A,, A,,2 B,,C, | D,2 D,2 D,3 D, |[M:3/4] G,,6 |] %20
V:3
 z4 z2 G,2 | x8 | C,2 z2 z4 | x8 |[M:3/4] G,,6 |[M:1/4] G,2 |[M:4/4] x8 | C,2 z2 z4 | x8 | %9
[M:3/4] x6 |[M:1/4] x2 |[M:4/4] x11/2[K:treble] x5/2 |[M:3/4] G->[G,G-] [G,G-]>[G,G-] [G,G]2 | %13
[M:1/4][K:bass] x2 |[M:4/4] z4 z2 [D,D]2[K:treble] | x15/2[K:bass] x/ | x8 | x8 | x8 |[M:3/4] x6 |] %20
V:4
 x8 | x8 | x8 | x8 |[M:3/4] D6 |[M:1/4] x2 |[M:4/4] x8 | x8 | x8 |[M:3/4] x6 |[M:1/4] x2 | %11
[M:4/4] z2 B,>B, B,>G G>A |[M:3/4] z z/ D/ D>D D2 |[M:1/4] D-[DGB] |[M:4/4] x8 | x8 | %16
 D2 D>D E>[EGB] [EA]>[E^GB] | E>E E>E E2 [DGB][CEA] | x8 |[M:3/4] x6 |] %20

